Flat-Remix-Dark/apps/scalable/bovo.svg

<svg xmlns="http://www.w3.org/2000/svg" xmlns:xlink="http://www.w3.org/1999/xlink" width="384pt" height="384pt" version="1.1" viewBox="0 0 384 384">
 <defs>
  <filter id="alpha" width="100%" height="100%" x="0%" y="0%" filterUnits="objectBoundingBox">
   <feColorMatrix in="SourceGraphic" type="matrix" values="0 0 0 0 1 0 0 0 0 1 0 0 0 0 1 0 0 0 1 0"/>
  </filter>
  <mask id="mask1">
   <g filter="url(#alpha)">
    <rect width="384" height="384" x="0" y="0" style="fill:rgb(0%,0%,0%);fill-opacity:0.101961"/>
   </g>
  </mask>
  <clipPath id="clip2">
   <rect width="384" height="384" x="0" y="0"/>
  </clipPath>
  <g id="surface8" clip-path="url(#clip2)">
   <path style="fill:rgb(100.000%,100.000%,100.000%)" d="M 42 24 C 32.027344 24 24 32.027344 24 42 L 24 48 C 24 38.027344 32.027344 30 42 30 L 342 30 C 351.972656 30 360 38.027344 360 48 L 360 42 C 360 32.027344 351.972656 24 342 24 Z M 42 24"/>
  </g>
  <mask id="mask2">
   <g filter="url(#alpha)">
    <rect width="384" height="384" x="0" y="0" style="fill:rgb(0%,0%,0%);fill-opacity:0.4"/>
   </g>
  </mask>
  <clipPath id="clip3">
   <rect width="384" height="384" x="0" y="0"/>
  </clipPath>
  <g id="surface11" clip-path="url(#clip3)">
   <path style="fill:rgb(6.666%,17.647%,36.078%)" d="M 156 84 L 156 156 L 84 156 L 84 168 L 156 168 L 156 216 L 84 216 L 84 228 L 156 228 L 156 300 L 168 300 L 168 228 L 216 228 L 216 300 L 228 300 L 228 228 L 300 228 L 300 216 L 228 216 L 228 168 L 300 168 L 300 156 L 228 156 L 228 84 L 216 84 L 216 156 L 168 156 L 168 84 Z M 168 168 L 216 168 L 216 216 L 168 216 Z M 168 168"/>
  </g>
 </defs>
 <g>
  <path style="fill:rgb(100.000%,100.000%,100.000%)" d="M 360 342 L 360 42 C 360 32.058594 351.941406 24 342 24 L 42 24 C 32.058594 24 24 32.058594 24 42 L 24 342 C 24 351.941406 32.058594 360 42 360 L 342 360 C 351.941406 360 360 351.941406 360 342 Z M 360 342"/>
  <use mask="url(#mask1)" xlink:href="#surface8"/>
  <path style="fill:rgb(21.176%,48.235%,94.117%)" d="m 97.762712,66.350282 c -17.347391,0 -31.41243,14.065039 -31.41243,31.41243 0,17.347388 14.065039,31.412428 31.41243,31.412428 17.347388,0 31.412428,-14.06504 31.412428,-31.412428 0,-17.347391 -14.06504,-31.41243 -31.412428,-31.41243 z m 0,15.706215 c 8.676248,0 15.706218,7.029963 15.706218,15.706215 0,8.676248 -7.02997,15.706218 -15.706218,15.706218 -8.676252,0 -15.706215,-7.02997 -15.706215,-15.706218 0,-8.676252 7.029963,-15.706215 15.706215,-15.706215 z m 0,0"/>
  <use width="100%" height="100%" x="0" y="0" mask="url(#mask2)" transform="matrix(1.3088512,0,0,1.3088512,-59.299435,-59.299435)" xlink:href="#surface11"/>
  <path style="fill:rgb(21.176%,48.235%,94.117%)" d="m 286.23729,254.82486 c -17.34739,0 -31.41243,14.06504 -31.41243,31.41243 0,17.34739 14.06504,31.41243 31.41243,31.41243 17.34739,0 31.41243,-14.06504 31.41243,-31.41243 0,-17.34739 -14.06504,-31.41243 -31.41243,-31.41243 z m 0,15.70621 c 8.67625,0 15.70621,7.02997 15.70621,15.70622 0,8.67625 -7.02996,15.70621 -15.70621,15.70621 -8.67625,0 -15.70622,-7.02996 -15.70622,-15.70621 0,-8.67625 7.02997,-15.70622 15.70622,-15.70622 z m 0,0"/>
  <path style="fill:rgb(99.215%,28.627%,28.627%)" d="M 208.66229,164.23293 192,180.89522 175.33771,164.23293 164.23293,175.33771 180.89522,192 164.23293,208.66229 175.33771,219.76707 192,203.10478 208.66229,219.76707 219.76707,208.66229 203.10478,192 219.76707,175.33771 Z m 0,0"/>
 </g>
 <path style="opacity:0.1" d="M 56 32 C 42.7448 32 32 42.7448 32 56 L 32 66 C 32 52.7448 42.7448 42 56 42 L 456 42 C 469.25521 42 480 52.7448 480 66 L 480 56 C 480 42.7448 469.25521 32 456 32 L 56 32 z" transform="scale(0.75)"/>
 <path style="fill:#0c0c0c;opacity:0.3" d="M 32 444 L 32 456 C 32 469.25521 42.744787 480 56 480 L 456 480 C 469.25521 480 480 469.25521 480 456 L 480 444 C 480 457.25521 469.25521 468 456 468 L 56 468 C 42.7448 468 32 457.25521 32 444 z" transform="scale(0.75)"/>
</svg>

<svg width="512" height="512" version="1.1" viewBox="0 0 384 384" xmlns="http://www.w3.org/2000/svg" xmlns:xlink="http://www.w3.org/1999/xlink"><defs><filter id="alpha" x="0%" y="0%" width="100%" height="100%"><feColorMatrix in="SourceGraphic" values="0 0 0 0 1 0 0 0 0 1 0 0 0 0 1 0 0 0 1 0"/></filter><mask id="d"><g filter="url(#alpha)"><rect width="384" height="384" fill-opacity=".10196"/></g></mask><clipPath id="f"><rect width="384" height="384"/></clipPath><g id="a" clip-path="url(#f)"><path d="m42 24c-9.9727 0-18 8.0273-18 18v6c0-9.9727 8.0273-18 18-18h300c9.9727 0 18 8.0273 18 18v-6c0-9.9727-8.0273-18-18-18z" fill="#fff"/></g><mask id="c"><g filter="url(#alpha)"><rect width="384" height="384" fill-opacity=".4"/></g></mask><clipPath id="e"><rect width="384" height="384"/></clipPath><g id="b" clip-path="url(#e)"><path d="m156 84v72h-72v12h72v48h-72v12h72v72h12v-72h48v72h12v-72h72v-12h-72v-48h72v-12h-72v-72h-12v72h-48v-72zm12 84h48v48h-48z" fill="#102c5b"/></g></defs><path d="m42 24c-11.968 0-21.75 9.5685-21.75 21.275v293.45c0 11.707 9.7821 21.275 21.75 21.275h300c11.968 0 21.75-9.5685 21.75-21.275v-293.45c0-11.707-9.7821-21.275-21.75-21.275zm0 7.3362h300c7.9149 0 14.25 6.1968 14.25 13.939v293.45c0 7.7421-6.3351 13.939-14.25 13.939h-300c-7.9149 0-14.25-6.1968-14.25-13.939v-293.45c0-7.7421 6.3351-13.939 14.25-13.939z" color="#000000" color-rendering="auto" dominant-baseline="auto" image-rendering="auto" opacity=".2" shape-rendering="auto" solid-color="#000000" style="font-feature-settings:normal;font-variant-alternates:normal;font-variant-caps:normal;font-variant-ligatures:normal;font-variant-numeric:normal;font-variant-position:normal;isolation:auto;mix-blend-mode:normal;shape-padding:0;text-decoration-color:#000000;text-decoration-line:none;text-decoration-style:solid;text-indent:0;text-orientation:mixed;text-transform:none;white-space:normal"/><path d="m360 342v-300c0-9.9414-8.0586-18-18-18h-300c-9.9414 0-18 8.0586-18 18v300c0 9.9414 8.0586 18 18 18h300c9.9414 0 18-8.0586 18-18z" fill="#fff"/><use mask="url(#d)" xlink:href="#a"/><path d="m97.763 66.35c-17.347 0-31.412 14.065-31.412 31.412s14.065 31.412 31.412 31.412 31.412-14.065 31.412-31.412-14.065-31.412-31.412-31.412zm0 15.706c8.6762 0 15.706 7.03 15.706 15.706 0 8.6762-7.03 15.706-15.706 15.706-8.6763 0-15.706-7.03-15.706-15.706 0-8.6763 7.03-15.706 15.706-15.706z" fill="#357aef"/><use transform="matrix(1.3089 0 0 1.3089 -59.299 -59.299)" width="100%" height="100%" mask="url(#c)" xlink:href="#b"/><path d="m286.24 254.82c-17.347 0-31.412 14.065-31.412 31.412s14.065 31.412 31.412 31.412 31.412-14.065 31.412-31.412-14.065-31.412-31.412-31.412zm0 15.706c8.6762 0 15.706 7.03 15.706 15.706s-7.03 15.706-15.706 15.706-15.706-7.03-15.706-15.706 7.03-15.706 15.706-15.706z" fill="#357aef"/><path d="m208.66 164.23-16.662 16.662-16.662-16.662-11.105 11.105 16.662 16.662-16.662 16.662 11.105 11.105 16.662-16.662 16.662 16.662 11.105-11.105-16.662-16.662 16.662-16.662z" fill="#fc4848"/><path transform="scale(.75)" d="m56 32c-13.255 0-24 10.745-24 24v10c0-13.255 10.745-24 24-24h400c13.255 0 24 10.745 24 24v-10c0-13.255-10.745-24-24-24h-400z" opacity=".1"/><path transform="scale(.75)" d="m32 444v12c0 13.255 10.745 24 24 24h400c13.255 0 24-10.745 24-24v-12c0 13.255-10.745 24-24 24h-400c-13.255 0-24-10.745-24-24z" fill="#0c0c0c" opacity=".3"/></svg>
